X: 14008
T: (WILL) BARTLETT'S
C: Bob McQuillen Nov.'09
B: Bob's Note Book 14 #8
%R: reel
%D:2008
Z: 2020 John Chambers <jc:trillian.mit.edu>
M: C
L: 1/8
K: G
DE \
| G2DG B2BA | GABc d2gf | edcB cAdc | BdBG AcBA |
| G2DG BcBA | GABc d2BG | FGAB cAdc | B2G2 G2  :|
|: Bc \
| d2gf g2dc | BcdB G2Bc | d2gf edBG | ABAF D2EF |
| G2GE DEGA | BGEG DEGB | AGAB cdef | g2G2 G2  :|
%%begintext align
%% Neal Orzechowski
%% has several fiddle students, and two of them are
%% the Bartlett brothers, Will and Luke. They are
%% real nice boys, and of course, they each deserve
%% a tune. Can you tell which one of the boys this
%% tune's for?
%%endtext

%%sep 1 1 500

%%sep 1 1 500

